src/actions/16/mergecell.svg

<svg viewBox="0 0 16 16" xmlns="http://www.w3.org/2000/svg">
 <defs>
  <style type="text/css">.ColorScheme-Text {
        color:#2e3440;
      }</style>
 </defs>
 <path class="ColorScheme-Text" d="m2 2v12h1 6 1 3 1v-12zm1 1h2v2h-2zm3 0h3v2h-3zm4 0h1 1 1v2h-1-1-1zm-7 3h2v3h-2zm3 0h3 1 3v3 1 3h-3-1-3v-3-1zm-3 4h2v3h-2z" fill="currentColor"/>
</svg>

<svg xmlns="http://www.w3.org/2000/svg" viewBox="0 0 16 16">
  <defs id="defs3051">
    <style type="text/css" id="current-color-scheme">
      .ColorScheme-Text {
        color:#2e3440;
      }
      </style>
  </defs>
 <path style="fill:currentColor;fill-opacity:1;stroke:none" 
     d="m 2,2 0,12 1,0 6,0 1,0 3,0 1,0 0,-12 z M 3,3 5,3 5,5 3,5 Z M 6,3 9,3 9,5 6,5 Z m 4,0 1,0 1,0 1,0 0,2 -1,0 -1,0 -1,0 z M 3,6 5,6 5,9 3,9 Z m 3,0 3,0 1,0 3,0 0,3 0,1 0,3 -3,0 -1,0 -3,0 0,-3 0,-1 z m -3,4 2,0 0,3 -2,0 z"
     class="ColorScheme-Text"
     />
</svg>
